X: 20755
M: C
L: 1/8
K: D
|:\
{g}fedB ABde | fafd e2ef | {g}fedB ABde | faeg f2d2 :|
|:\
{g}f2{e}df e2cA | d2Bd c2AA | {c}BAFA BcdB | AGFE D2D2 :|


